X:1
T:Magdalenapolskan efter Carl Gustav Åstrand
R:Slängpolska
O:Östergötland
D:Björnlert, Löfberg, Pekkari - Mikaelidansen
M:3/4
L:1/16
K:Am
E2 |: A3B cdcB AGAB |  cBcd  e4 c4 |  cde^f  g2ag ^fd^fa  | abag   e8 :|        
       |: c2e2 g2a2 ^f2a2 | abag e4 c4 |  c2e2  g2a2 ^f2a2 | abag   e4 c2dc |    
       B2cB A2Ac e2c2 | BcBA  ^G4 A4 :|

